alpha-a-box-outline.svg

<svg fill="currentColor" viewBox="0 0 24 24"><path d="M3 5a2 2 0 0 1 2-2h14a2 2 0 0 1 2 2v14a2 2 0 0 1-2 2H5a2 2 0 0 1-2-2zm2 0v14h14V5zm6 2h2a2 2 0 0 1 2 2v8h-2v-4h-2v4H9V9a2 2 0 0 1 2-2m0 2v2h2V9z"/></svg>

<svg  viewBox="0 0 24 24" fill="currentColor"><path  d="M3,5A2,2 0 0,1 5,3H19A2,2 0 0,1 21,5V19A2,2 0 0,1 19,21H5C3.89,21 3,20.1 3,19V5M5,5V19H19V5H5M11,7H13A2,2 0 0,1 15,9V17H13V13H11V17H9V9A2,2 0 0,1 11,7M11,9V11H13V9H11Z"/></svg>
